X: 26933
T: Miss Bennet's
R: jig
M: 6/8
K: Gmajor
g2 d BdB|G2 F GAB|c2 B A2 G|FED cBd|
g2 d B2 d|G2 F G2 B|EcB AGF|G3 G2:|
dBG de=f|=fee e2 ^d|e^cA ee/f/g|gf=f ^f2 d|
g2 d B2 G|d2 B G2 D|E2 c A2 F|G3 G2:|

